archcraft-icons-zafiro/files/Zafiro/apps/scalable/digikam.svg

<?xml version="1.0" encoding="UTF-8" standalone="no"?>
<svg
   xmlns:dc="http://purl.org/dc/elements/1.1/"
   xmlns:cc="http://creativecommons.org/ns#"
   xmlns:rdf="http://www.w3.org/1999/02/22-rdf-syntax-ns#"
   xmlns:svg="http://www.w3.org/2000/svg"
   xmlns="http://www.w3.org/2000/svg"
   xmlns:sodipodi="http://sodipodi.sourceforge.net/DTD/sodipodi-0.dtd"
   xmlns:inkscape="http://www.inkscape.org/namespaces/inkscape"
   width="100%"
   height="100%"
   viewBox="0 0 1024 1024"
   version="1.1"
   xml:space="preserve"
   style="fill-rule:evenodd;clip-rule:evenodd;stroke-linecap:round;stroke-linejoin:round;stroke-miterlimit:1.5;"
   id="svg27"
   sodipodi:docname="digikam.svg"
   inkscape:version="0.92.1 r15371"><metadata
     id="metadata33"><rdf:RDF><cc:Work
         rdf:about=""><dc:format>image/svg+xml</dc:format><dc:type
           rdf:resource="http://purl.org/dc/dcmitype/StillImage" /></cc:Work></rdf:RDF></metadata><defs
     id="defs31" /><sodipodi:namedview
     pagecolor="#ffffff"
     bordercolor="#666666"
     borderopacity="1"
     objecttolerance="10"
     gridtolerance="10"
     guidetolerance="10"
     inkscape:pageopacity="0"
     inkscape:pageshadow="2"
     inkscape:window-width="1920"
     inkscape:window-height="1040"
     id="namedview29"
     showgrid="false"
     inkscape:zoom="0.23046875"
     inkscape:cx="-368.81356"
     inkscape:cy="512"
     inkscape:window-x="0"
     inkscape:window-y="0"
     inkscape:window-maximized="1"
     inkscape:current-layer="svg27" /><circle
     id="circle2"
     style="fill:#446376;stroke-width:1.05200577;fill-opacity:1"
     r="482.74442"
     cy="514.16949"
     cx="522.84747" /><circle
     id="circle4"
     style="fill:#ffffff;fill-opacity:1;stroke-width:1.05200577"
     r="288.74088"
     cy="514.16949"
     cx="522.84747" /><g
     id="g22"
     transform="matrix(1.0520058,0,0,1.0520058,-15.779495,-24.457462)"
     style="fill:#ffffff;fill-opacity:0.73000002;stroke:#446376;stroke-opacity:1"><path
       inkscape:connector-curvature="0"
       id="path6"
       style="fill:#ffffff;stroke:#446376;stroke-width:19.81999969px;fill-opacity:0.73000002;stroke-opacity:1"
       d="M 550.561,496.987 679.207,862.779" /><path
       inkscape:connector-curvature="0"
       id="path8"
       style="fill:#ffffff;stroke:#446376;stroke-width:19.81999969px;fill-opacity:0.73000002;stroke-opacity:1"
       d="M 537.392,475.568 887.053,643.17" /><path
       inkscape:connector-curvature="0"
       id="path10"
       style="fill:#ffffff;stroke:#446376;stroke-width:19.81999969px;fill-opacity:0.73000002;stroke-opacity:1"
       d="M 490.247,460.767 856.062,332.186" /><path
       inkscape:connector-curvature="0"
       id="path12"
       style="fill:#ffffff;stroke:#446376;stroke-width:19.81999969px;fill-opacity:0.73000002;stroke-opacity:1"
       d="M 452.342,491.212 619.831,141.497" /><path
       inkscape:connector-curvature="0"
       id="path14"
       style="fill:#ffffff;stroke:#446376;stroke-width:19.81999969px;fill-opacity:0.73000002;stroke-opacity:1"
       d="M 470.236,567.308 120.53,399.799" /><path
       inkscape:connector-curvature="0"
       id="path16"
       style="fill:#ffffff;stroke:#446376;stroke-width:19.81999969px;fill-opacity:0.73000002;stroke-opacity:1"
       d="M 517.385,582.096 151.604,710.775" /><path
       inkscape:connector-curvature="0"
       id="path18"
       style="fill:#ffffff;stroke:#446376;stroke-width:19.81999969px;fill-opacity:0.73000002;stroke-opacity:1"
       d="M 555.282,551.641 387.887,901.401" /><path
       inkscape:connector-curvature="0"
       id="path20"
       style="fill:#ffffff;stroke:#446376;stroke-width:19.81999969px;fill-opacity:0.73000002;stroke-opacity:1"
       d="M 456.691,552.234 328.102,186.422" /></g><path
     inkscape:connector-curvature="0"
     id="path24"
     style="fill:#446376;stroke:#394c58;stroke-width:11.86662483px;fill-opacity:1"
     d="m 580.56577,434.33279 30.49555,69.9668 -18.54581,78.4344 -54.4918,34.26172 -76.68701,-13.52985 -37.52295,-65.38742 7.93002,-74.07172 63.43385,-47.53594 z" /></svg>

<?xml version="1.0" encoding="UTF-8" standalone="no"?><!DOCTYPE svg PUBLIC "-//W3C//DTD SVG 1.1//EN" "http://www.w3.org/Graphics/SVG/1.1/DTD/svg11.dtd"><svg width="100%" height="100%" viewBox="0 0 1024 1024" version="1.1" xmlns="http://www.w3.org/2000/svg" xmlns:xlink="http://www.w3.org/1999/xlink" xml:space="preserve" xmlns:serif="http://www.serif.com/" style="fill-rule:evenodd;clip-rule:evenodd;stroke-linecap:round;stroke-linejoin:round;stroke-miterlimit:1.5;"><g id="Layer1"><circle cx="512" cy="512" r="458.88" style="fill:#394c58;"/><circle cx="512" cy="512" r="274.467" style="fill:#afd6f1;fill-opacity:0.73;"/><g><path d="M550.561,496.987l128.646,365.792" style="fill:none;stroke:#394c58;stroke-width:19.82px;"/><path d="M537.392,475.568l349.661,167.602" style="fill:none;stroke:#394c58;stroke-width:19.82px;"/><path d="M490.247,460.767l365.815,-128.581" style="fill:none;stroke:#394c58;stroke-width:19.82px;"/><path d="M452.342,491.212l167.489,-349.715" style="fill:none;stroke:#394c58;stroke-width:19.82px;"/><path d="M470.236,567.308l-349.706,-167.509" style="fill:none;stroke:#394c58;stroke-width:19.82px;"/><path d="M517.385,582.096l-365.781,128.679" style="fill:none;stroke:#394c58;stroke-width:19.82px;"/><path d="M555.282,551.641l-167.395,349.76" style="fill:none;stroke:#394c58;stroke-width:19.82px;"/><path d="M456.691,552.234l-128.589,-365.812" style="fill:none;stroke:#394c58;stroke-width:19.82px;"/></g><path d="M566.865,436.11l28.988,66.508l-17.629,74.557l-51.798,32.568l-72.896,-12.861l-35.668,-62.155l7.538,-70.41l60.298,-45.186l81.167,16.979Z" style="fill:#394c58;stroke:#394c58;stroke-width:11.28px;"/></g></svg>
